X:49
T:Speed the Plough. JBu.49
O:England,South Yorkshire
S:Joshua Burnett’s MS,c1835,S.Yorkshire
M:C|
L:1/8
Q:1/4=130
R:Country Dance
Z:vmp.R.Greig.2011
K:A
ABcd efec|efec eaec|dedB cdcA|FABA GBB2|
ABcd efec|efec eaec|dedB cdcA|FAGB cAA2:|
|:aAaA aAeA|aAgA fAeA|dedB cdcA|FABA GBB2|
cAec aece|fdBf ecAe|dedB cdcA|FAGB cAA2:|

